X:1
T:Title
%%score { ( 1 3 5 6 ) | ( 2 4 7 ) }
L:1/8
M:3/4
K:Db
V:1 treble nm="Grand Piano"
V:3 treble 
V:5 treble 
V:6 treble 
V:2 bass 
V:4 bass 
V:7 bass 
V:1
 z2 z2[Q:1/4=100] [FA]2 | [Fd]3 [Fc] [FB]>[DF] | [GA]>[CG] [CG]3 [GA] | [Gc]3 [GB] [FA]>[EG] | %4
 [DF]>[EG] [FA]3 [FA] | [Fd]3 [Fd] [Fc]>[Ad] | [Ac]>B B3 B | [=GB]3 [GB] [Gc]>[Gd] | d>c c3 A | %9
[M:27/32] [Fd]/4-[Fd]/4-[Fd]/-<[Fd]/[Fd]/[Fd]/-<[Fd]/[Fd]/-<[Fd]/ z/4 z/4 z/4 z/4 z/4 z/4 z/ [CE]3/4 | %10
[M:2/4] D4 |[M:4/4] (9:8:7A2 G2- [DG-]/ [CG-]3/2[B,G-]/[A,G]/- [A,G]2 | %12
 (9:8:7e2 d2- [Fd-]/ [Fd-]3/2[Ed-]/[Dd]/- [Dd]2 | (9:8:7[FA]2 [Ac]2 [GB]/ [FA][EG][DF]3/2-[A,DF] | %14
 (5:4:4[A,E-G-][A,EG]3/2 [DFA]/- [DFA]2- [DFA]4- | [DFA]3/2-[DFA]/4 z/4 z2 (5:4:4C2 B,/ A,/- A,2 | %16
[M:7/8] z2 d- d- d3- |[M:1/4] d2- | d/4 z/4 z/ z | %19
[M:4/4] (9:8:9[B,E][B,E][A,B,F]3/2[B,G] [A,D-F-]3/2[A,D-F-]/[G,-A,-DE-F]/[G,A,-E-][G,A,E] | %20
[M:3/4] D6 |] %21
V:2
 z2 z2 [D,A,]2 | [D,A,]3 [D,D] [D,D]>[D,A,] | [E,C]>[E,A,] [A,,A,]3 [A,,A,] | %3
 [A,,A,]3 [A,,A,] [A,,A,]>[A,,A,] | [D,A,]>[D,A,] [D,D]3 [D,A,] | [D,A,]3 [D,A,] [D,D]>[F,D] | %6
 [G,D]>[G,DG] [G,DG]3 [G,DG] | [E,E]3 [E,E] [E,E]>[E,E] | [A,EG]>[A,EG] [A,EG]3 [A,CG] | %9
[M:27/32][K:bass] [D,D]/4-[D,D]/4-[D,D]/-<[D,D]/[D,D]/[D,A,]/-<[D,A,]/[D,A,]/-<[D,A,]/A,/4-A,/4-A,/4-A,/4-A,/-<A,/-[A,,-G,-A,]/[A,,G,]/4 | %10
[M:2/4] [D,F,]4- |[M:4/4] [D,F,]3/4 z/4 z z2 (5:4:4A,,2 A,,/ A,,/- A,,2 | %12
 z2 z z/ [D,A,]/- [D,A,]/4 z/4 z/ z z2 | %13
 (9:8:7[D,A,]2 [A,,A,]2 [A,,A,]/ [A,,A,][A,,A,][D,A,]3/2D, | (5:4:4D,D,3/2 D,/- D,2- D,4 | %15
 (9:8:7A2 G2- [A,,G-]/ [A,,G-]3/2[A,,G-]/[A,,G]/- [A,,G]2 |[M:7/8] z z z2 A,3/2-A,/4 z/4 z | %17
[M:1/4] z2 | [D,F,A,]2 |[M:4/4] (9:8:8[G,,G,][G,,G,]G,,3/2G,, A,,3/2A,,/A,,3/2A,, | %20
[M:3/4] [D,F,A,]6 |] %21
V:3
 x6 | x6 | x6 | x6 | x6 | x6 | x6 | x6 | x6 | %9
[M:27/32] z/4 z/4 z/4 z/4 z/4 z/4 z/4 z/4 z/4 z/4 z/4 z/4 z/4 z/4 z/ [DF]/4-[DF]/4-[DF]/4-[DF]/4-[DF]/4-[DF]/4-[DF]/-<[DF]/ z/4 | %10
[M:2/4] x4 |[M:4/4] x8 | x8 | x8 | x8 | z2 z z/ D/- D/4 z/4 z/ z z2 | %16
[M:7/8] e2- e/4 z/4 z/ z F3/2-F/4 z/4 z |[M:1/4] x2 | x2 |[M:4/4] x8 |[M:3/4] x6 |] %21
V:4
 x6 | x6 | x6 | x6 | x6 | x6 | x6 | x6 | x6 | %9
[M:27/32][K:bass] z/4 z/4 z/4 z/4 z/4 z/4 z/4 z/4 z/4 z/4 z/4 z/4 z/4 z/4 z/ A,,/4-A,,/4-A,,/4-A,,/4-A,,/-<A,,/ z/4 z/ | %10
[M:2/4] x4 |[M:4/4] z2 z z/ A,,/- A,,/4 z/4 z/ z z2 | z4 (5:4:4[D,A,]2 [D,G,]/ [D,F,]/- [D,F,]2 | %13
 x8 | x8 | x8 |[M:7/8] z z z z z z/ G,/-G,/4 z/4 z/ |[M:1/4] x2 | x2 |[M:4/4] x8 |[M:3/4] x6 |] %21
V:5
 x6 | x6 | x6 | x6 | x6 | x6 | x6 | x6 | x6 |[M:27/32] x27/4 |[M:2/4] x4 |[M:4/4] x8 | x8 | x8 | %14
 x8 | x8 |[M:7/8] z z z z z z/ E/-E/4 z/4 z/ |[M:1/4] x2 | x2 |[M:4/4] x8 |[M:3/4] x6 |] %21
V:6
 x6 | x6 | x6 | x6 | x6 | x6 | x6 | x6 | x6 |[M:27/32] x27/4 |[M:2/4] x4 |[M:4/4] x8 | x8 | x8 | %14
 x8 | x8 |[M:7/8] z z z z/ F/ z2 D- |[M:1/4] D2 | D2 |[M:4/4] x8 |[M:3/4] x6 |] %21
V:7
 x6 | x6 | x6 | x6 | x6 | x6 | x6 | x6 | x6 |[M:27/32][K:bass] x27/4 |[M:2/4] x4 |[M:4/4] x8 | x8 | %13
 x8 | x8 | x8 |[M:7/8] z z z z/ [D,A,]<D,D,/[D,F,]- |[M:1/4] [D,F,]2 | x2 |[M:4/4] x8 | %20
[M:3/4] x6 |] %21

